X:1
T:Ho, Every One That Is Thirsty!
T:Ho, Every One That Is Thirsty!
T:Lucy Jane Rider Meyer
T:Lucy Jane Rider Meyer, 1884
T:Public Domain Courtesy of the Cyber Hymnal™
T:Public Domain Courtesy of the Cyber Hymnal™
C:Lucy Jane Rider Meyer
Z:Public Domain
Z:Courtesy of the Cyber Hymnal™
%%score 1 2
L:1/8
Q:1/4=95
M:6/8
K:A
V:1 treble 
V:2 bass 
V:1
 [Ec]>[Ec][Ec] [Ec][DB][CA] | [FA]>[EG][DF] [CE]2 [CA] | [Ec]>[Ec][Ec] | [Ec][EB][EA] | %4
w: 1.~Ho! ev- ery one that is|thirst- y in spir- it,|Ho! ev- ery|one that is|
w: 2.~Child of the world, are you|tired of your bond- age?|Wear- y of|earth joys, so|
w: 3.~Child of the king- dom, be|filled with the Spir- it!|No- thing but|“full- ness” thy|
 [Ee]>[Ed][Ec] [EB]3 | [Ec]>[Ec][Ec] [Ec][EB][CA] | [FA]>[EG][DF] [CE]2 [CA] | %7
w: wear- y and sad;|Come to the fount- ain, there’s|full- ness in Je- sus,|
w: false, so un- true?|Thirst- ing for God and His|full- ness of bless- ing?|
w: long- ing can meet;|’Tis the en- due- ment for|life and for ser- vice;|
 [Ec]>[=Ge][Ge] [Fe][Fd][FB] | [Ec]>[CA][DB] [CA]3 ||"^Refrain" [CE]>[CE][CE] [CE][CE][CE] | %10
w: All that you’re long- ing for:|come and be glad!||
w: List to the prom- ise, a|mes- sage for you!|“I will pour wa- ter on|
w: Thine is the prom- ise, so|cer- tain, so sweet.||
 [EA]>[EA][FB] [EA]2 [DG] | [DB]>[DB][DB] [DB]2 [Ec] | [DB]>[CA][CA] [CA]3 | %13
w: |||
w: him that is thirst- y,|I will pour floods up-|on the dry ground;|
w: |||
 [Ec]>[Ec][Ec] [Ec]>[Ec][Ec] | [Fd]>[Fd][Fd] [Fd]2 [Fd] | [Ae]>[Ae][=Ge] [Fe][Fd][FB] | %16
w: |||
w: O- pen your hearts for the|gifts I am bring- ing;|While ye are seek- ing Me,|
w: |||
 [Ec][CA][DB] [CA]6 |] %17
w: |
w: I will be found.”|
w: |
V:2
 [A,,A,]>[A,,A,][A,,A,] [A,,A,][A,,A,][A,,A,] | [D,A,]>[D,A,][D,A,] [A,,A,]2 [A,,A,] | %2
 [A,,A,]>[A,,A,][A,,A,] | [A,,A,][B,,G,][C,A,] | [C,A,]>[B,,G,][A,,A,] [E,G,]3 | %5
 [A,,A,]>[A,,A,][A,,A,] [A,,A,][A,,A,][A,,A,] | [D,A,]>[D,A,][D,A,] [A,,A,]2 [A,,A,] | %7
 A,>[C,A,][C,A,] [D,A,][D,A,][D,A,] | [E,A,]>[E,A,][E,G,] [A,,A,]3 || %9
 [A,,A,]>[A,,A,][A,,A,] [A,,A,][A,,A,][A,,A,] | [C,A,]>[C,A,][D,D] [E,C]2 [E,B,] | %11
 [E,G,]>[E,G,][E,G,] [E,G,]2 [E,G,] | [A,,A,]>[A,,A,][A,,A,] [A,,A,]3 | %13
 [A,,A,]>[A,,A,][A,,A,] [A,,A,]>[A,,A,][A,,A,] | [D,A,]>[D,A,][D,A,] [D,A,]2 [D,A,] | %15
 [C,A,]>[C,A,][C,A,] [D,A,][D,A,][D,A,] | [E,A,][E,A,][E,G,] [A,,A,]6 |] %17

